X:1
T:Veleta, The
T:Veleta, The
T:Arthur Morris, 1899
C:Arthur Morris, 1899
L:1/8
M:3/4
K:G
V:1 treble 
V:1
 D4 G2 | A4 G2 | G4 F2 | [Fd]6 | D4 A2 | B4 A2 | [B,A]4 G2 | [GB]6 | [^Gd]4 [GB]2 | ^G4 E2 | %10
 [CA]4 [Ec]2 | [ce]6 | [Be]4 [Bd]2 | [GB]4 G2 | [Fd][Fd] [Fd]2 [Fd]2 | G4 z2 :: ^CD [B,D]2 [B,D]2 | %17
 ^CD [B,D]2 [B,D]2 | DG F3 E | F6 | ^DE [CE]2 [CE]2 | ^DE [CE]2 [CE]2 | G2 F3 E | [B,D]6 | %24
 ^CD [B,D]2 [B,D]2 | ^CD [B,D]2 [B,D]2 | DG F3 G | [CA]6 | AG .E2 .E2 | FE D2 D2 | D2 [CE]2 F2 | %31
 [B,G]2 [Bg]2 z2 :|[K:C] G,2 G4 | A2 G2 C2 | B,2 G4- | G6 | G,2 G4 | A2 G2 B,2 | C2 E4- | E6 | %40
 G,2 G4 | A2 G2 C2 | B,2 G3- | G6 | B,2 G4 | B,2 F4 | [CE]6- | [CE]2 z2 E2 |: A3 ^G AB | c3 B ce | %50
 [ca]2 [ca]2 [ca]2 | [ce]6 | e3 f e^d | [^Ge]6 | d3 c Bc | A4 E2 | A3 ^G AB | c3 B ce | %58
 [ca]2 [ca]2 [ca]2 | [ce]6 | e3 e ^de | [^Gf]4 [Ge]2 | [CA]6 |1 [CA]2 z2 E2 :|2 [CA]6 | [^Fd]6 || %66

